img/soc-icons/instagram.svg

<svg width="48" height="48" viewBox="0 0 48 48" fill="none" xmlns="http://www.w3.org/2000/svg">
<circle cx="24" cy="24" r="22" fill="#E1306C"/>
<path d="M23.8046 28.4874C26.1753 28.4874 28.0972 26.5655 28.0972 24.1948C28.0972 21.824 26.1753 19.9022 23.8046 19.9022C21.4338 19.9022 19.5119 21.824 19.5119 24.1948C19.5119 26.5655 21.4338 28.4874 23.8046 28.4874Z" fill="white"/>
<path d="M29.1703 13.6583H18.4388C16.8778 13.6583 15.512 14.1461 14.6339 15.0242C13.7559 15.9022 13.2681 17.2681 13.2681 18.829V29.5606C13.2681 31.1215 13.7559 32.4874 14.7315 33.463C15.7071 34.341 16.9754 34.8288 18.5363 34.8288H29.1703C30.7313 34.8288 32.0971 34.341 32.9752 33.463C33.9508 32.5849 34.4386 31.2191 34.4386 29.6581V18.9266C34.4386 17.3656 33.9508 16.0973 33.0727 15.1217C32.0971 14.1461 30.8289 13.6583 29.1703 13.6583ZM23.8046 30.8288C20.0973 30.8288 17.1705 27.8045 17.1705 24.1948C17.1705 20.4875 20.1948 17.5607 23.8046 17.5607C27.4143 17.5607 30.5362 20.4875 30.5362 24.1948C30.5362 27.9021 27.5118 30.8288 23.8046 30.8288ZM30.7313 18.829C29.8533 18.829 29.1703 18.1461 29.1703 17.2681C29.1703 16.39 29.8533 15.7071 30.7313 15.7071C31.6093 15.7071 32.2922 16.39 32.2922 17.2681C32.2922 18.1461 31.6093 18.829 30.7313 18.829Z" fill="white"/>
<path d="M23.9997 0C10.7316 0 0 10.7316 0 23.9997C0 37.2678 10.7316 47.9993 23.9997 47.9993C37.2678 47.9993 47.9993 37.2678 47.9993 23.9997C48.0969 10.7316 37.2678 0 23.9997 0ZM36.78 29.6581C36.78 31.902 35.9995 33.8532 34.6337 35.219C33.2678 36.5849 31.3166 37.2678 29.1703 37.2678H18.5363C16.39 37.2678 14.4388 36.5849 13.073 35.219C11.6096 33.8532 10.9267 31.902 10.9267 29.6581V18.9266C10.9267 14.4388 13.951 11.3169 18.5363 11.3169H29.2679C31.5118 11.3169 33.3654 12.0974 34.7312 13.4632C36.0971 14.8291 36.78 16.6827 36.78 18.9266V29.6581Z" fill="white"/>
</svg>

<svg width="48" height="48" fill="none" xmlns="http://www.w3.org/2000/svg">
    <circle cx="24" cy="24" r="22" fill="#E1306C"/>
    <path d="M23.805 28.487a4.293 4.293 0 1 0 0-8.585 4.293 4.293 0 0 0 0 8.585Z" fill="#fff"/>
    <path d="M29.17 13.658H18.44c-1.561 0-2.927.488-3.805 1.366-.878.878-1.366 2.244-1.366 3.805v10.732c0 1.56.488 2.926 1.463 3.902.976.878 2.244 1.366 3.805 1.366H29.17c1.561 0 2.927-.488 3.805-1.366.976-.878 1.464-2.244 1.464-3.805V18.927c0-1.561-.488-2.83-1.366-3.805-.976-.976-2.244-1.464-3.903-1.464Zm-5.365 17.17c-3.708 0-6.634-3.023-6.634-6.633 0-3.707 3.024-6.634 6.634-6.634 3.61 0 6.731 2.927 6.731 6.634 0 3.707-3.024 6.634-6.731 6.634ZM30.73 18.83a1.541 1.541 0 0 1-1.56-1.56c0-.879.682-1.562 1.56-1.562s1.561.683 1.561 1.561a1.54 1.54 0 0 1-1.56 1.561Z" fill="#fff"/>
    <path d="M24 0C10.732 0 0 10.732 0 24s10.732 24 24 24 24-10.732 24-24c.097-13.268-10.732-24-24-24Zm12.78 29.658c0 2.244-.78 4.195-2.146 5.561-1.366 1.366-3.317 2.049-5.464 2.049H18.536c-2.146 0-4.097-.683-5.463-2.049-1.463-1.366-2.146-3.317-2.146-5.56V18.926c0-4.488 3.024-7.61 7.61-7.61h10.73c2.245 0 4.098.78 5.464 2.146 1.366 1.366 2.049 3.22 2.049 5.464v10.731Z" fill="#fff"/>
</svg>
